X: 8872
T: Cumhacht Na Gaoithe
R: reel
M: 4/4
K: Adorian
EAAB c2BA|G2DG EGDG|EAAB c2BA|G2 AB A2 AG|
EAAB c2cA|G2DG EGDG|EAAB c2BA|G2 GB A2 AB|
c2Bc AGEG|G2EG A2AB|c2Bc AGEG|c2BG A2AB|
c2Bc AGEF|G2EG A2AB|c2Bc AGEG|c2BG A2AG|

